packages/core/src/svgs/spore.svg

<svg width="24" height="24" viewBox="0 0 24 24" fill="none" xmlns="http://www.w3.org/2000/svg">
<g clip-path="url(#clip0_31_19171)">
<path d="M0 0H24V24H0V0Z" fill="#F0F3FA"/>
<path d="M9.8827 10.1228L10.5856 9.82711C10.5856 9.45425 10.7141 9.08568 10.9756 8.7214C11.7042 7.6588 12.7776 6.8806 14.0141 6.51854C14.2113 6.46282 14.357 6.38997 14.4556 6.31282C14.9398 5.90568 14.5584 5.15568 13.9541 5.19854C13.8427 5.20711 13.7098 5.24997 13.5513 5.32282C11.8257 6.15023 10.276 7.30271 8.98699 8.71711C8.64244 9.09837 8.3433 9.51832 8.09556 9.96854C7.8408 10.3929 7.68092 10.8673 7.62692 11.3593C7.57291 11.8512 7.62606 12.3491 7.7827 12.8185C7.79127 12.4628 7.80842 12.2357 7.8427 12.1328C8.01212 11.5974 8.3448 11.1283 8.79413 10.7914C9.13079 10.5285 9.49594 10.3042 9.8827 10.1228Z" fill="url(#paint0_linear_31_19171)"/>
<path d="M7.21723 8.93564C7.08866 8.78135 6.96866 8.67421 6.85723 8.60564C6.51437 8.40421 6.07723 8.55421 5.80295 8.79849C5.77295 8.82421 5.75152 8.81564 5.73438 8.76849C6.15317 8.04402 6.69902 7.40089 7.3458 6.86992C8.17717 6.19685 9.09364 5.63631 10.0715 5.20278C10.4829 5.02278 11.0015 5.26278 10.9844 5.74707C10.9715 6.13278 10.7401 6.30421 10.3972 6.44992C9.14025 6.98979 8.04463 7.8462 7.21723 8.93564Z" fill="#15BDE8"/>
<path d="M14.8499 8.3916C15.5485 8.42588 16.2128 8.66588 16.8471 9.1116C17.197 9.35577 17.4947 9.66725 17.7228 10.0278C17.9509 10.3884 18.1049 10.7908 18.1757 11.2116C18.2057 11.353 18.2957 11.473 18.4499 11.5716C18.7242 11.743 19.1014 11.6145 19.2299 11.3316C19.2814 11.2116 19.2985 11.0702 19.2728 10.903C19.1067 9.88422 18.5861 8.95682 17.8028 8.28445C17.2477 7.75241 16.5663 7.37042 15.8228 7.17445C15.3118 7.06569 14.7879 7.03105 14.2671 7.0716C13.9542 7.08874 13.6799 7.20445 13.5685 7.50874C13.4742 7.77445 13.5257 8.0016 13.7142 8.19446C13.8471 8.3316 13.9928 8.39588 14.1471 8.3916C14.4128 8.38303 14.6485 8.38303 14.8499 8.3916ZM15.8785 7.80017C15.8785 7.92874 15.7714 8.04017 15.6385 8.04017C15.6066 8.04074 15.575 8.03495 15.5454 8.02315C15.5157 8.01134 15.4888 7.99375 15.466 7.97141C15.4433 7.94907 15.4252 7.92241 15.4129 7.89301C15.4006 7.86361 15.3942 7.83205 15.3942 7.80017C15.3942 7.66731 15.5014 7.55588 15.6385 7.55588C15.7714 7.55588 15.8785 7.66731 15.8785 7.80017Z" fill="url(#paint1_linear_31_19171)"/>
<path d="M9.857 9.42843C9.97066 9.42843 10.0797 9.38328 10.16 9.30291C10.2404 9.22253 10.2856 9.11352 10.2856 8.99986C10.2856 8.8862 10.2404 8.77719 10.16 8.69681C10.0797 8.61644 9.97066 8.57129 9.857 8.57129C9.74334 8.57129 9.63433 8.61644 9.55395 8.69681C9.47358 8.77719 9.42843 8.8862 9.42843 8.99986C9.42843 9.11352 9.47358 9.22253 9.55395 9.30291C9.63433 9.38328 9.74334 9.42843 9.857 9.42843ZM13.1441 9.05557L13.727 9.06415C14.2756 9.07272 14.807 9.167 15.3213 9.34272C15.3684 9.35986 15.4199 9.40272 15.4627 9.42843C15.1499 9.767 15.107 10.127 14.6099 10.157C14.4084 10.1656 14.1899 10.1827 13.9584 10.2084C13.3756 10.2684 13.0241 10.5856 12.9084 11.1556C12.5656 11.1384 12.2141 11.1256 11.8627 11.1299C11.0484 11.1299 10.1827 11.2884 9.44557 11.6099C8.93129 11.837 8.28843 12.2999 8.18986 12.8956C8.147 13.1441 8.20271 13.3713 8.357 13.5856L8.56271 13.877C8.20178 13.611 7.92985 13.242 7.78271 12.8184C7.79129 12.4627 7.80843 12.2356 7.84271 12.1327C8.01213 11.5973 8.34481 11.1282 8.79414 10.7913C9.1308 10.5283 9.49595 10.3041 9.88271 10.1227L10.5856 9.827C10.6499 10.0841 10.787 10.2556 11.0056 10.3541C11.3056 10.4827 11.6356 10.4141 11.8199 10.1356C11.9184 9.98129 12.0084 9.77557 12.077 9.52272C12.5999 9.71557 12.9556 9.56129 13.1484 9.05557H13.1441Z" fill="#FF0B46"/>
<path d="M7.4059 9.35574C7.62447 9.87003 7.50875 10.2557 7.05447 10.5172C6.8059 10.6629 6.56161 10.6329 6.30875 10.4315C6.26161 9.97717 6.43733 9.61717 6.83161 9.36003C7.06304 9.21432 7.1959 9.3386 7.4059 9.35574Z" fill="#069EF5"/>
<path d="M17.7301 11.8587L17.7215 11.9144C17.713 11.9573 17.7044 11.9573 17.6873 11.9144C17.6593 11.8366 17.6234 11.762 17.5801 11.6916C17.323 11.2716 16.7401 10.6887 16.1915 10.6716C16.0501 10.6673 15.9215 10.6716 15.7973 10.7016C15.7115 10.7187 15.6173 10.7573 15.5144 10.8173C15.4535 10.8514 15.402 10.9 15.3644 10.9587C15.3215 11.0273 15.2787 11.0873 15.223 11.143C15.1844 11.1859 15.1544 11.2287 15.1287 11.2801C15.073 11.383 15.0858 11.443 15.1544 11.4601L14.4987 11.4987C14.383 11.5073 14.3058 11.503 14.2715 11.4901C13.7358 11.3016 13.3801 11.2459 12.9087 11.1559C13.0244 10.5859 13.3758 10.2687 13.9587 10.2087C14.1901 10.183 14.4087 10.1659 14.6101 10.1573C15.1073 10.1273 15.1501 9.76728 15.463 9.42871H15.4973C16.1884 9.71987 16.787 10.194 17.2287 10.8001C17.4515 11.1087 17.6187 11.4601 17.7301 11.8587Z" fill="#15BDE8"/>
<path d="M11.9998 12C10.9712 12 10.1441 12.2871 9.85693 12.4286C10.2126 12.57 11.1426 12.8571 11.9998 12.8571C12.8569 12.8571 13.7869 12.57 14.1426 12.4286C13.8555 12.2871 13.0284 12 11.9998 12Z" fill="#D0DEF4"/>
<path d="M17.7301 11.8585L17.7215 11.9142C17.713 11.957 17.7044 11.957 17.6873 11.9142C17.6593 11.8364 17.6234 11.7617 17.5801 11.6913C17.323 11.2713 16.7401 10.6885 16.1915 10.6713C16.0501 10.667 15.9173 10.6713 15.7973 10.7013C15.7115 10.7185 15.6173 10.757 15.5144 10.817C15.4535 10.8511 15.402 10.8997 15.3644 10.9585C15.3215 11.027 15.2787 11.087 15.223 11.1428C15.1844 11.1856 15.1544 11.2285 15.1287 11.2799C15.073 11.3828 15.0858 11.4428 15.1544 11.4599C15.9987 11.5628 16.5215 11.9956 16.723 12.7585L16.7401 12.887C16.7573 12.9985 16.7701 13.1013 16.7487 13.2256C16.6875 13.5927 16.5299 13.937 16.2919 14.2231C16.0539 14.5093 15.7442 14.7271 15.3944 14.8542C15.3344 14.8799 15.2744 14.897 15.2101 14.9185C15.0344 14.9785 14.8587 15.0342 14.7215 15.1585C14.3787 15.4713 14.6873 16.0585 15.1415 15.9685C15.6429 15.8809 16.1175 15.6797 16.529 15.3803C16.9406 15.0809 17.2781 14.6913 17.5158 14.2413C17.7166 13.8814 17.8394 13.4832 17.8763 13.0727C17.9132 12.6622 17.8634 12.2485 17.7301 11.8585Z" fill="url(#paint2_linear_31_19171)"/>
<path d="M7.2171 8.93558L7.40567 9.35558C7.34765 9.34908 7.2903 9.33761 7.23424 9.32129C7.10567 9.28701 6.99424 9.25701 6.83138 9.36415C6.6467 9.46956 6.49804 9.62815 6.40478 9.81926C6.31152 10.0104 6.27798 10.2251 6.30853 10.4356C6.27853 10.4313 6.26138 10.4442 6.2571 10.4784C6.21424 10.8642 6.21424 11.2627 6.26567 11.6784C6.6171 13.3199 7.6371 14.4899 9.18424 15.0556C9.44138 15.1499 9.56996 15.3984 9.47567 15.6556C9.35996 15.9642 9.05138 16.0327 8.75996 15.9427C6.83996 15.3642 5.14281 13.4142 5.14281 11.357C5.12567 10.8599 5.12996 10.4399 5.21567 9.98558C5.24567 9.84844 5.30138 9.67701 5.3871 9.47129L5.72996 8.76844C5.75138 8.81129 5.77281 8.82415 5.80281 8.79844C6.0771 8.55415 6.51853 8.40415 6.8571 8.60558C6.96853 8.67415 7.08853 8.78129 7.2171 8.93558Z" fill="url(#paint3_linear_31_19171)"/>
<path d="M4.92864 14.9999C4.98547 14.9999 5.03998 14.9773 5.08016 14.9371C5.12035 14.8969 5.14293 14.8424 5.14293 14.7856C5.14293 14.7287 5.12035 14.6742 5.08016 14.6341C5.03998 14.5939 4.98547 14.5713 4.92864 14.5713C4.87181 14.5713 4.8173 14.5939 4.77712 14.6341C4.73693 14.6742 4.71436 14.7287 4.71436 14.7856C4.71436 14.8424 4.73693 14.8969 4.77712 14.9371C4.8173 14.9773 4.87181 14.9999 4.92864 14.9999Z" fill="#055FC9"/>
<path d="M19.0716 14.5716C19.1285 14.5716 19.183 14.5491 19.2232 14.5089C19.2633 14.4687 19.2859 14.4142 19.2859 14.3574C19.2859 14.3005 19.2633 14.246 19.2232 14.2058C19.183 14.1656 19.1285 14.1431 19.0716 14.1431C19.0148 14.1431 18.9603 14.1656 18.9201 14.2058C18.8799 14.246 18.8574 14.3005 18.8574 14.3574C18.8574 14.4142 18.8799 14.4687 18.9201 14.5089C18.9603 14.5491 19.0148 14.5716 19.0716 14.5716ZM5.78592 17.1431C5.95642 17.1431 6.11993 17.0753 6.24049 16.9548C6.36105 16.8342 6.42878 16.6707 6.42878 16.5002C6.42878 16.3297 6.36105 16.1662 6.24049 16.0456C6.11993 15.9251 5.95642 15.8574 5.78592 15.8574C5.61543 15.8574 5.45191 15.9251 5.33135 16.0456C5.2108 16.1662 5.14307 16.3297 5.14307 16.5002C5.14307 16.6707 5.2108 16.8342 5.33135 16.9548C5.45191 17.0753 5.61543 17.1431 5.78592 17.1431Z" fill="#091B4B"/>
<path d="M18.6429 17.1426C18.8134 17.1426 18.9769 17.0749 19.0974 16.9544C19.218 16.8338 19.2857 16.6703 19.2857 16.4998C19.2857 16.3293 19.218 16.1658 19.0974 16.0452C18.9769 15.9247 18.8134 15.8569 18.6429 15.8569C18.4724 15.8569 18.3088 15.9247 18.1883 16.0452C18.0677 16.1658 18 16.3293 18 16.4998C18 16.6703 18.0677 16.8338 18.1883 16.9544C18.3088 17.0749 18.4724 17.1426 18.6429 17.1426Z" fill="#FFC302"/>
<path d="M16.4999 16.7142C16.5568 16.7142 16.6113 16.6916 16.6515 16.6515C16.6916 16.6113 16.7142 16.5568 16.7142 16.4999C16.7142 16.4431 16.6916 16.3886 16.6515 16.3484C16.6113 16.3082 16.5568 16.2856 16.4999 16.2856C16.4431 16.2856 16.3886 16.3082 16.3484 16.3484C16.3082 16.3886 16.2856 16.4431 16.2856 16.4999C16.2856 16.5568 16.3082 16.6113 16.3484 16.6515C16.3886 16.6916 16.4431 16.7142 16.4999 16.7142Z" fill="#0171E5"/>
<path d="M7.49993 16.7142C7.55676 16.7142 7.61127 16.6916 7.65145 16.6515C7.69164 16.6113 7.71422 16.5568 7.71422 16.4999C7.71422 16.4431 7.69164 16.3886 7.65145 16.3484C7.61127 16.3082 7.55676 16.2856 7.49993 16.2856C7.4431 16.2856 7.38859 16.3082 7.34841 16.3484C7.30822 16.3886 7.28564 16.4431 7.28564 16.4999C7.28564 16.5568 7.30822 16.6113 7.34841 16.6515C7.38859 16.6916 7.4431 16.7142 7.49993 16.7142Z" fill="#FEA805"/>
<path d="M15.4286 17.5715C15.5422 17.5715 15.6512 17.5263 15.7316 17.446C15.812 17.3656 15.8571 17.2566 15.8571 17.1429C15.8571 17.0293 15.812 16.9203 15.7316 16.8399C15.6512 16.7595 15.5422 16.7144 15.4286 16.7144C15.3149 16.7144 15.2059 16.7595 15.1255 16.8399C15.0452 16.9203 15 17.0293 15 17.1429C15 17.2566 15.0452 17.3656 15.1255 17.446C15.2059 17.5263 15.3149 17.5715 15.4286 17.5715Z" fill="#FF0B46"/>
<path d="M8.99986 18.0002C9.11352 18.0002 9.22253 17.9551 9.30291 17.8747C9.38328 17.7943 9.42843 17.6853 9.42843 17.5716C9.42843 17.458 9.38328 17.349 9.30291 17.2686C9.22253 17.1882 9.11352 17.1431 8.99986 17.1431C8.8862 17.1431 8.77719 17.1882 8.69681 17.2686C8.61644 17.349 8.57129 17.458 8.57129 17.5716C8.57129 17.6853 8.61644 17.7943 8.69681 17.8747C8.77719 17.9551 8.8862 18.0002 8.99986 18.0002Z" fill="#15BDE8"/>
<path d="M10.7144 17.9998V12.8569H11.5715V17.1426C11.5715 17.37 11.4812 17.588 11.3204 17.7487C11.1597 17.9095 10.9417 17.9998 10.7144 17.9998Z" fill="#FFA404"/>
<path d="M10.7144 12.8571V12H11.5715V12.8571H10.7144Z" fill="#FF0B46"/>
<path d="M12.4287 12.8571V12H13.2859V12.8571H12.4287Z" fill="#0171E5"/>
<path d="M13.2857 18.8569H12C12.3514 18.0384 12.4029 17.2969 12.4286 15.8569V12.8569H13.2857V18.8569Z" fill="#15BDE8"/>
<path d="M12.9085 11.1556C13.3799 11.2456 13.7356 11.3013 14.2713 11.4899C14.4899 11.5713 15.197 11.8499 15.5913 12.2956C15.8999 12.647 15.977 13.0242 15.8227 13.4142C15.5442 14.1428 14.6827 14.3656 14.0013 14.5842C13.967 14.5928 13.9285 14.627 13.9285 14.6656V18.857H13.2856V17.5713C13.277 16.5685 13.277 13.6928 13.2856 13.0713C13.6499 12.6685 14.2627 12.7713 14.4985 13.277C14.502 13.2847 14.5072 13.2915 14.5136 13.297C14.52 13.3025 14.5275 13.3067 14.5356 13.3091C14.5437 13.3115 14.5522 13.3122 14.5605 13.3111C14.5689 13.31 14.577 13.3072 14.5842 13.3028C14.593 13.2976 14.6004 13.2902 14.6056 13.2813C14.717 13.0799 14.7042 12.8956 14.5627 12.7156C14.4564 12.576 14.305 12.4775 14.1342 12.437C13.8433 12.2854 13.5288 12.184 13.2042 12.137L12.4242 12.0513H11.657L10.937 12.1328C10.577 12.1842 10.2342 12.2913 9.91275 12.4413C9.72846 12.5056 9.57846 12.6213 9.46275 12.7842C9.43134 12.8268 9.40904 12.8754 9.39725 12.9271C9.38545 12.9787 9.3844 13.0322 9.39417 13.0842C9.40275 13.157 9.42417 13.2213 9.46275 13.277C9.5056 13.3542 9.54417 13.3499 9.57417 13.2685C9.7156 12.9256 9.85703 12.857 10.2856 12.857C10.7142 12.857 10.7142 13.5428 10.7142 14.1428C10.7142 14.7856 10.7056 15.9513 10.7142 17.9999L10.0713 18.857V14.6999C10.0713 14.6356 10.1142 14.5756 10.0542 14.5628C9.51002 14.4547 8.99904 14.2197 8.56275 13.877L8.35703 13.5856C8.28276 13.4893 8.2292 13.3787 8.1997 13.2607C8.1702 13.1427 8.1654 13.0198 8.1856 12.8999C8.29275 12.2999 8.9356 11.837 9.4456 11.6142C10.2107 11.2924 11.0327 11.1277 11.8627 11.1299C12.2142 11.1299 12.5656 11.1385 12.9085 11.1556Z" fill="#091B4B"/>
<path d="M12.6429 9.857C12.9979 9.857 13.2857 9.56919 13.2857 9.21415C13.2857 8.85911 12.9979 8.57129 12.6429 8.57129C12.2878 8.57129 12 8.85911 12 9.21415C12 9.56919 12.2878 9.857 12.6429 9.857Z" fill="#0E80DB"/>
</g>
<defs>
<linearGradient id="paint0_linear_31_19171" x1="14.1813" y1="5.62711" x2="7.65842" y2="11.94" gradientUnits="userSpaceOnUse">
<stop stop-color="#FFCA02"/>
<stop offset="1" stop-color="#FF9404"/>
</linearGradient>
<linearGradient id="paint1_linear_31_19171" x1="14.1814" y1="7.55588" x2="18.5357" y2="10.7187" gradientUnits="userSpaceOnUse">
<stop stop-color="#FF0D47"/>
<stop offset="1" stop-color="#FE9A04"/>
</linearGradient>
<linearGradient id="paint2_linear_31_19171" x1="16.2344" y1="10.667" x2="16.2344" y2="15.977" gradientUnits="userSpaceOnUse">
<stop stop-color="#0E8EEF"/>
<stop offset="1" stop-color="#061B4A"/>
</linearGradient>
<linearGradient id="paint3_linear_31_19171" x1="7.3071" y1="8.51129" x2="7.3071" y2="15.9813" gradientUnits="userSpaceOnUse">
<stop stop-color="#0175EA"/>
<stop offset="1" stop-color="#091D50"/>
</linearGradient>
<clipPath id="clip0_31_19171">
<rect width="24" height="24" fill="white"/>
</clipPath>
</defs>
</svg>

<svg xmlns="http://www.w3.org/2000/svg" width="24" height="24" fill="none" viewBox="0 0 24 24"><g clip-path="url(#a)"><path fill="#F0F3FA" d="M0 0h24v24H0z"/><path fill="url(#b)" d="m9.883 10.123.703-.296q-.002-.559.39-1.106a5.6 5.6 0 0 1 3.038-2.202c.197-.056.343-.129.442-.206.484-.407.102-1.157-.502-1.114a1.2 1.2 0 0 0-.403.124 14.9 14.9 0 0 0-4.564 3.394 6.6 6.6 0 0 0-.891 1.252 3.43 3.43 0 0 0-.313 2.85c.008-.356.025-.583.06-.686.17-.536.502-1.005.951-1.342a5.7 5.7 0 0 1 1.089-.668"/><path fill="#15BDE8" d="M7.217 8.936a1.5 1.5 0 0 0-.36-.33c-.343-.202-.78-.052-1.054.192q-.044.04-.069-.03A7 7 0 0 1 7.346 6.87a12.2 12.2 0 0 1 2.726-1.667c.41-.18.93.06.912.544-.012.386-.244.557-.587.703a7.9 7.9 0 0 0-3.18 2.486"/><path fill="url(#c)" d="M14.85 8.392q1.047.051 1.997.72a3.2 3.2 0 0 1 1.329 2.1q.044.211.274.36a.555.555 0 0 0 .78-.24.77.77 0 0 0 .043-.429 4.38 4.38 0 0 0-1.47-2.619 4.5 4.5 0 0 0-1.98-1.11 5.4 5.4 0 0 0-1.556-.102c-.313.017-.587.132-.698.437a.62.62 0 0 0 .145.685.57.57 0 0 0 .433.198q.4-.014.703 0m1.029-.592a.242.242 0 0 1-.485 0c0-.133.107-.244.245-.244.132 0 .24.111.24.244"/><path fill="#FF0B46" d="M9.857 9.428a.428.428 0 1 0 0-.856.428.428 0 0 0 0 .856m3.287-.372.583.008q.823.014 1.594.279c.047.017.099.06.142.085-.313.339-.356.699-.853.729q-.303.014-.652.051-.874.092-1.05.948c-.342-.018-.694-.03-1.045-.026-.815 0-1.68.158-2.417.48-.515.227-1.158.69-1.256 1.286a.88.88 0 0 0 .167.69l.206.291a2.2 2.2 0 0 1-.78-1.059c.008-.355.025-.582.06-.685.17-.536.502-1.005.951-1.342a5.7 5.7 0 0 1 1.089-.668l.703-.296c.064.257.201.429.42.527.3.129.63.06.814-.218.098-.155.188-.36.257-.613q.784.29 1.071-.467z"/><path fill="#069EF5" d="M7.406 9.356q.329.77-.352 1.161c-.248.146-.492.116-.745-.085q-.07-.684.523-1.072c.231-.146.364-.021.574-.004"/><path fill="#15BDE8" d="m17.73 11.859-.009.055q-.01.064-.034 0a1.2 1.2 0 0 0-.107-.222c-.257-.42-.84-1.003-1.388-1.02-.142-.005-.27 0-.395.03a1 1 0 0 0-.283.115.4.4 0 0 0-.15.142 1 1 0 0 1-.141.184.6.6 0 0 0-.094.137c-.056.103-.043.163.025.18l-.655.039a.7.7 0 0 1-.228-.009c-.535-.188-.89-.244-1.362-.334q.174-.856 1.05-.947a10 10 0 0 1 .651-.052c.497-.03.54-.39.853-.728h.034c.691.29 1.29.765 1.732 1.371q.334.462.501 1.059"/><path fill="#D0DEF4" d="M12 12c-1.029 0-1.856.287-2.143.429.356.141 1.286.428 2.143.428s1.787-.287 2.143-.428C13.855 12.287 13.028 12 12 12"/><path fill="url(#d)" d="m17.73 11.859-.009.055q-.01.064-.034 0a1.2 1.2 0 0 0-.107-.223c-.257-.42-.84-1.003-1.388-1.02a1.5 1.5 0 0 0-.395.03 1 1 0 0 0-.283.116.4.4 0 0 0-.15.142 1 1 0 0 1-.141.184.6.6 0 0 0-.094.137c-.056.103-.043.163.025.18q1.267.155 1.569 1.298l.017.129a1 1 0 0 1 .009.339 2.1 2.1 0 0 1-1.355 1.628c-.06.026-.12.043-.184.065-.176.06-.351.115-.489.24-.342.312-.034.9.42.81a3.33 3.33 0 0 0 2.375-1.728 2.94 2.94 0 0 0 .214-2.383"/><path fill="url(#e)" d="m7.217 8.936.189.42a1 1 0 0 1-.172-.035c-.128-.034-.24-.064-.403.043a1.06 1.06 0 0 0-.522 1.072q-.046-.008-.052.042c-.043.386-.043.785.009 1.2.351 1.642 1.371 2.812 2.918 3.378.257.094.386.342.292.6-.116.308-.425.377-.716.287-1.92-.579-3.617-2.529-3.617-4.586-.017-.497-.013-.917.073-1.371q.044-.206.171-.515l.343-.703c.021.043.043.056.073.03.274-.244.716-.394 1.054-.192.112.068.232.175.36.33"/><path fill="#055FC9" d="M4.929 15a.214.214 0 1 0 0-.429.214.214 0 0 0 0 .429"/><path fill="#091B4B" d="M19.072 14.572a.214.214 0 1 0 0-.429.214.214 0 0 0 0 .429M5.786 17.143a.643.643 0 1 0 0-1.286.643.643 0 0 0 0 1.286"/><path fill="#FFC302" d="M18.643 17.143a.643.643 0 1 0 0-1.286.643.643 0 0 0 0 1.286"/><path fill="#0171E5" d="M16.5 16.714a.215.215 0 1 0 0-.43.215.215 0 0 0 0 .43"/><path fill="#FEA805" d="M7.5 16.714a.215.215 0 1 0 0-.429.215.215 0 0 0 0 .43"/><path fill="#FF0B46" d="M15.429 17.572a.429.429 0 1 0 0-.858.429.429 0 0 0 0 .858"/><path fill="#15BDE8" d="M9 18a.428.428 0 1 0 0-.857A.428.428 0 0 0 9 18"/><path fill="#FFA404" d="M10.714 18v-5.143h.857v4.286a.857.857 0 0 1-.857.857"/><path fill="#FF0B46" d="M10.714 12.857V12h.857v.857z"/><path fill="#0171E5" d="M12.429 12.857V12h.857v.857z"/><path fill="#15BDE8" d="M13.286 18.857H12c.351-.819.403-1.56.429-3v-3h.857z"/><path fill="#091B4B" d="M12.909 11.156c.47.09.827.145 1.362.334.219.081.926.36 1.32.806.309.351.386.728.232 1.118-.279.729-1.14.952-1.822 1.17-.034.009-.072.043-.072.082v4.191h-.643v-1.286a391 391 0 0 1 0-4.5c.364-.402.977-.3 1.213.206a.06.06 0 0 0 .086.026.1.1 0 0 0 .02-.022.47.47 0 0 0-.042-.565.76.76 0 0 0-.429-.279 2.9 2.9 0 0 0-.93-.3l-.78-.086h-.767l-.72.082c-.36.051-.703.158-1.024.308a.9.9 0 0 0-.45.343.39.39 0 0 0-.069.3q.012.11.069.193.065.114.111-.008c.142-.343.283-.412.712-.412.428 0 .428.686.428 1.286 0 .643-.008 1.808 0 3.857l-.643.857V14.7c0-.064.043-.124-.017-.137a3.5 3.5 0 0 1-1.491-.686l-.206-.291a.88.88 0 0 1-.171-.686c.107-.6.75-1.063 1.26-1.286a6.2 6.2 0 0 1 2.417-.484c.351 0 .703.008 1.046.026"/><path fill="#0E80DB" d="M12.643 9.857a.643.643 0 1 0 0-1.286.643.643 0 0 0 0 1.286"/></g><defs><linearGradient id="b" x1="14.181" x2="7.658" y1="5.627" y2="11.94" gradientUnits="userSpaceOnUse"><stop stop-color="#FFCA02"/><stop offset="1" stop-color="#FF9404"/></linearGradient><linearGradient id="c" x1="14.181" x2="18.536" y1="7.556" y2="10.719" gradientUnits="userSpaceOnUse"><stop stop-color="#FF0D47"/><stop offset="1" stop-color="#FE9A04"/></linearGradient><linearGradient id="d" x1="16.234" x2="16.234" y1="10.667" y2="15.977" gradientUnits="userSpaceOnUse"><stop stop-color="#0E8EEF"/><stop offset="1" stop-color="#061B4A"/></linearGradient><linearGradient id="e" x1="7.307" x2="7.307" y1="8.511" y2="15.981" gradientUnits="userSpaceOnUse"><stop stop-color="#0175EA"/><stop offset="1" stop-color="#091D50"/></linearGradient><clipPath id="a"><path fill="#fff" d="M0 0h24v24H0z"/></clipPath></defs></svg>
